public/icon.svg

<svg width="10" height="11" viewBox="0 0 10 11" fill="none" xmlns="http://www.w3.org/2000/svg">
<path d="M1.332 6.172C1.132 6.172 0.96 6.02 0.816 5.716C0.672 5.412 0.6 5.04 0.6 4.6V2.104C0.6 1.952 1.02 1.692 1.86 1.324C2.7 0.947999 3.184 0.76 3.312 0.76C3.408 0.76 3.544 0.92 3.72 1.24C3.76 1.32 3.816 1.428 3.888 1.564C3.968 1.7 4.032 1.812 4.08 1.9C4.184 2.092 4.316 2.188 4.476 2.188V2.428C4.348 2.484 4.176 2.568 3.96 2.68C3.456 2.96 3.184 3.1 3.144 3.1C3.024 3.1 2.872 2.864 2.688 2.392C2.512 1.92 2.368 1.684 2.256 1.684C2.112 1.684 2.04 1.804 2.04 2.044V4.72C2.04 5.04 2.112 5.2 2.256 5.2C2.288 5.2 2.536 5.096 3 4.888C3.464 4.68 3.744 4.576 3.84 4.576C4.032 4.576 4.2 4.732 4.344 5.044C4.496 5.348 4.572 5.74 4.572 6.22V8.776C4.572 8.928 4.112 9.192 3.192 9.568C2.28 9.936 1.756 10.12 1.62 10.12C1.564 10.12 1.5 10.052 1.428 9.916C1.356 9.78 1.26 9.588 1.14 9.34C1.028 9.084 0.924 8.872 0.828 8.704C0.74 8.536 0.616 8.452 0.456 8.452V8.212C0.584 8.156 0.752 8.072 0.96 7.96C1.472 7.68 1.748 7.54 1.788 7.54C1.908 7.54 2.076 7.816 2.292 8.368C2.516 8.92 2.684 9.196 2.796 9.196C2.876 9.196 2.952 9.164 3.024 9.1C3.096 9.036 3.132 8.948 3.132 8.836V6.136C3.132 5.776 3.032 5.596 2.832 5.596C2.768 5.596 2.516 5.692 2.076 5.884C1.636 6.076 1.388 6.172 1.332 6.172ZM9.66966 2.14V8.884C9.66966 8.948 9.22966 9.152 8.34966 9.496C7.47766 9.832 6.94166 10 6.74166 10C6.54966 10 6.32566 9.828 6.06966 9.484C5.82166 9.14 5.69766 8.728 5.69766 8.248V2.488C5.69766 2.056 5.53366 1.804 5.20566 1.732V1.468L6.41766 0.784C6.59366 0.855999 6.75766 0.975999 6.90966 1.144C7.06166 1.304 7.13766 1.456 7.13766 1.6L8.62566 0.76C8.76966 0.76 8.97766 0.924 9.24966 1.252C9.52966 1.58 9.66966 1.876 9.66966 2.14ZM7.74966 8.896C7.90166 8.896 8.05766 8.832 8.21766 8.704V3.04C8.21766 2.472 8.01366 2.188 7.60566 2.188C7.44566 2.188 7.28966 2.248 7.13766 2.368V8.008C7.13766 8.6 7.34166 8.896 7.74966 8.896Z" fill="white"/>
</svg>

<svg version="1.1" xmlns="http://www.w3.org/2000/svg" xmlns:xlink="http://www.w3.org/1999/xlink" width="10" height="11" viewBox="0,0,232.72501,256"><g transform="translate(11.63625,12.8) scale(0.9,0.9)"><g fill="#ffffff" fill-rule="nonzero" stroke="none" stroke-width="1" stroke-linecap="butt" stroke-linejoin="miter" stroke-miterlimit="10" stroke-dasharray="" stroke-dashoffset="0" font-family="none" font-weight="none" font-size="none" text-anchor="none" style="mix-blend-mode: normal"><g transform="translate(-1.46336,1.39636) scale(23.27273,23.27273)"><path d="M1.332,6.172c-0.2,0 -0.372,-0.152 -0.516,-0.456c-0.144,-0.304 -0.216,-0.676 -0.216,-1.116v-2.496c0,-0.152 0.42,-0.412 1.26,-0.78c0.84,-0.376 1.324,-0.564 1.452,-0.564c0.096,0 0.232,0.16 0.408,0.48c0.04,0.08 0.096,0.188 0.168,0.324c0.08,0.136 0.144,0.248 0.192,0.336c0.104,0.192 0.236,0.288 0.396,0.288v0.24c-0.128,0.056 -0.3,0.14 -0.516,0.252c-0.504,0.28 -0.776,0.42 -0.816,0.42c-0.12,0 -0.272,-0.236 -0.456,-0.708c-0.176,-0.472 -0.32,-0.708 -0.432,-0.708c-0.144,0 -0.216,0.12 -0.216,0.36v2.676c0,0.32 0.072,0.48 0.216,0.48c0.032,0 0.28,-0.104 0.744,-0.312c0.464,-0.208 0.744,-0.312 0.84,-0.312c0.192,0 0.36,0.156 0.504,0.468c0.152,0.304 0.228,0.696 0.228,1.176v2.556c0,0.152 -0.46,0.416 -1.38,0.792c-0.912,0.368 -1.436,0.552 -1.572,0.552c-0.056,0 -0.12,-0.068 -0.192,-0.204c-0.072,-0.136 -0.168,-0.328 -0.288,-0.576c-0.112,-0.256 -0.216,-0.468 -0.312,-0.636c-0.088,-0.168 -0.212,-0.252 -0.372,-0.252v-0.24c0.128,-0.056 0.296,-0.14 0.504,-0.252c0.512,-0.28 0.788,-0.42 0.828,-0.42c0.12,0 0.288,0.276 0.504,0.828c0.224,0.552 0.392,0.828 0.504,0.828c0.08,0 0.156,-0.032 0.228,-0.096c0.072,-0.064 0.108,-0.152 0.108,-0.264v-2.7c0,-0.36 -0.1,-0.54 -0.3,-0.54c-0.064,0 -0.316,0.096 -0.756,0.288c-0.44,0.192 -0.688,0.288 -0.744,0.288zM9.66966,2.14v6.744c0,0.064 -0.44,0.268 -1.32,0.612c-0.872,0.336 -1.408,0.504 -1.608,0.504c-0.192,0 -0.416,-0.172 -0.672,-0.516c-0.248,-0.344 -0.372,-0.756 -0.372,-1.236v-5.76c0,-0.432 -0.164,-0.684 -0.492,-0.756v-0.264l1.212,-0.684c0.176,0.072 0.34,0.192 0.492,0.36c0.152,0.16 0.228,0.312 0.228,0.456l1.488,-0.84c0.144,0 0.352,0.164 0.624,0.492c0.28,0.328 0.42,0.624 0.42,0.888zM7.74966,8.896c0.152,0 0.308,-0.064 0.468,-0.192v-5.664c0,-0.568 -0.204,-0.852 -0.612,-0.852c-0.16,0 -0.316,0.06 -0.468,0.18v5.64c0,0.592 0.204,0.888 0.612,0.888z"></path></g></g></g></svg>
